X:99009
T:Mr Watson's Favourite
P:The Lass o' Gowrie
C:Traditional
R:Reel (8x32)
B:RSCDS Gr-9
Z:Anselm Lingnau <anselm@strathspey.org>
M:2/4
L:1/8
K:C
G/F/|"C"EG GA/B/|c>d cB|"F"A>G Ac|"G"d>e dG/F/|
     "C"EG GA/B/|c>d "E7"e>d|"F"d/c/B/A/ "C"G/A/c/E/|"G7"D2 "C"C||
g/f/|"C"eg ce/f/|g/f/e/f/ "A7"gf/e/|"Dm"fa df/g/|a/g/f/g/ ag/f/|
     "C"eg "G"d>e|"Am"c>A "G"G"F"a|"C"ge gf/e/|"G7"d2 c|]

